X:5
T:Styggvukkuleken (pols)
Z:Track 13, Smaviltlaget, Lader Om; 2008 Brian Wilson <Brian.Wilson@alumni.brown.edu>
M:3/4
L:1/8
K:A
|: "A"c2 (d[df]) c>e | "A/C#"g3/2(e/ fd) c>A | "E"(B>c) v(d/B/d) (c/A/c) | "E"(B/G/B) "A/F#"A2 "A/G#"E2
|  "A"c2 (d[df]) c>e | "A/C#"g3/2(e/ fd) c>A | "E"(B/G/B) "A"A3 E :|
|: "A"(c>d) e2 c>A | "A/C#"(c>d) ue4- | "G/E"euf =g2 (g>b) | "G"(a>f) (=g<a) b>g
|  "A"(c>d) e2 c>A | "A/C#"(c>d) ue4- | "G/E"euf =g2 e2 | "E"(B/G/B) "A"A3 E :|

